proprietary/assets/icons/computer-en-internet/computercode.svg

<svg enable-background="new 0 0 64 64" viewBox="0 0 64 64" xmlns="http://www.w3.org/2000/svg"><path d="m0 0h64v64h-64z" fill="none"/><path d="m54 12h-44c-1.7 0-3 1.3-3 3v34c0 1.7 1.3 3 3 3h44c1.7 0 3-1.3 3-3v-34c0-1.7-1.3-3-3-3zm-37.5 2c.8 0 1.5.7 1.5 1.5s-.7 1.5-1.5 1.5-1.5-.7-1.5-1.5.7-1.5 1.5-1.5zm-5 0c.8 0 1.5.7 1.5 1.5s-.7 1.5-1.5 1.5-1.5-.7-1.5-1.5.7-1.5 1.5-1.5zm42.5 35h-44v-30h44z"/><path d="m26.9 43.6 2.8 1 7.4-20.2-2.8-1z"/><path d="m25.3 28.3-7.8 4.7v2l7.8 4.7 1.5-2.7-5.1-3 5.1-3z"/><path d="m38.7 28.3-1.5 2.7 5.1 3-5.1 3 1.5 2.7 7.8-4.7v-2z"/></svg>

<?xml version="1.0" encoding="utf-8"?>
<!-- Generator: Adobe Illustrator 23.1.1, SVG Export Plug-In . SVG Version: 6.00 Build 0)  -->
<svg version="1.1" xmlns="http://www.w3.org/2000/svg" xmlns:xlink="http://www.w3.org/1999/xlink" x="0px" y="0px"
	 viewBox="0 0 64 64" style="enable-background:new 0 0 64 64;" xml:space="preserve">
<style type="text/css">
	.st0{fill:none;}
</style>
<g id="Box">
	<rect class="st0" width="64" height="64"/>
</g>
<g id="Icon">
	<g>
		<g>
			<path d="M54,12H10c-1.7,0-3,1.3-3,3v34c0,1.7,1.3,3,3,3h44c1.7,0,3-1.3,3-3V15C57,13.3,55.7,12,54,12z M16.5,14
				c0.8,0,1.5,0.7,1.5,1.5S17.3,17,16.5,17c-0.8,0-1.5-0.7-1.5-1.5S15.7,14,16.5,14z M11.5,14c0.8,0,1.5,0.7,1.5,1.5
				S12.3,17,11.5,17c-0.8,0-1.5-0.7-1.5-1.5S10.7,14,11.5,14z M54,49H10V19h44V49z"/>
		</g>
	</g>
	<g>
		<polygon points="26.9,43.6 29.7,44.6 37.1,24.4 34.3,23.4 		"/>
		<polygon points="25.3,28.3 17.5,33 17.5,35 25.3,39.7 26.8,37 21.7,34 26.8,31 		"/>
		<polygon points="38.7,28.3 37.2,31 42.3,34 37.2,37 38.7,39.7 46.5,35 46.5,33 		"/>
	</g>
</g>
</svg>
